X: 27537
T: Monaghan Twig, The
R: reel
M: 4/4
K: Amixolydian
ed|cAAB cded|cAAG E3d|cAAB cded|BAGB d2ed|
cAAB cded|cAAG E3d|cAAB cded|BAGB d2||
(3Bcd ef gfed|(3Bcd ef e3d|(3Bcd ef gfge|dBGB d2ed|
(3Bcd ed (3Bcd ed|cAAB cdef|g3e dfed|BAGB d2||

